X: 080
T: Patty's Whim
B: 204 Favourite Country Dances
N: Published by Straight & Skillern, London ca.1775
F: http://imslp.org/wiki/204_Favourite_Country_Dances_(Various) p.40 #80
Z: 2014 John Chambers <jc:trillian.mit.edu>
M: 6/8
L: 1/8
K: A
% - - - - - - - - - - - - - - - - - - - - - - - - -
|:\
a2e cBA | a2f edc |\
def edc | dcB A3 :|\
|:\
e2f ecA | d2f fdB |\
c2d ecA | dcB A3 :|
% - - - - - - - - - - - - - - - - - - - - - - - - -
%%begintext align
%% The 1st Cu. foot it to the 2d Wo. but
%% not turn .| the same to the second
%% Man :| lead down 1 Cu. foot it to your
%% Part: .|. Right & Left at top :|:
%%endtext

%%sep 1 1 500
%%sep 1 1 500
